cssgg/slack.svg

<svg
  width="24"
  height="24"
  viewBox="0 0 24 24"
  fill="none"
  xmlns="http://www.w3.org/2000/svg"
>
  <path
    fill-rule="evenodd"
    clip-rule="evenodd"
    d="M13 10C13 11.1046 13.8954 12 15 12C16.1046 12 17 11.1046 17 10V5C17 3.89543 16.1046 3 15 3C13.8954 3 13 3.89543 13 5V10ZM5 8C3.89543 8 3 8.89543 3 10C3 11.1046 3.89543 12 5 12H10C11.1046 12 12 11.1046 12 10C12 8.89543 11.1046 8 10 8H5ZM15 13C13.8954 13 13 13.8954 13 15C13 16.1046 13.8954 17 15 17H20C21.1046 17 22 16.1046 22 15C22 13.8954 21.1046 13 20 13H15ZM10 22C8.89543 22 8 21.1046 8 20L8 15C8 13.8954 8.89543 13 10 13C11.1046 13 12 13.8954 12 15V20C12 21.1046 11.1046 22 10 22ZM8 5C8 3.89543 8.89543 3 10 3C11.1046 3 12 3.89543 12 5V7H10C8.89543 7 8 6.10457 8 5ZM3 15C3 16.1046 3.89543 17 5 17C6.10457 17 7 16.1046 7 15V13H5C3.89543 13 3 13.8954 3 15ZM17 20C17 21.1046 16.1046 22 15 22C13.8954 22 13 21.1046 13 20V18H15C16.1046 18 17 18.8954 17 20ZM22 10C22 8.89543 21.1046 8 20 8C18.8954 8 18 8.89543 18 10V12H20C21.1046 12 22 11.1046 22 10Z"
    fill="currentColor"
  />
</svg>

<svg viewBox="0 0 24 24" xmlns="http://www.w3.org/2000/svg"><path fill-rule="evenodd" d="M13 10c0 1.1.89 2 2 2 1.1 0 2-.9 2-2V5c0-1.11-.9-2-2-2 -1.11 0-2 .89-2 2v5ZM5 8c-1.11 0-2 .89-2 2 0 1.1.89 2 2 2h5c1.1 0 2-.9 2-2 0-1.11-.9-2-2-2H5Zm10 5c-1.11 0-2 .89-2 2 0 1.1.89 2 2 2h5c1.1 0 2-.9 2-2 0-1.11-.9-2-2-2h-5Zm-5 9c-1.11 0-2-.9-2-2v-5c0-1.11.89-2 2-2 1.1 0 2 .89 2 2v5c0 1.1-.9 2-2 2ZM8 5c0-1.11.89-2 2-2 1.1 0 2 .89 2 2v2h-2c-1.11 0-2-.9-2-2ZM3 15c0 1.1.89 2 2 2 1.1 0 2-.9 2-2v-2H5c-1.11 0-2 .89-2 2Zm14 5c0 1.1-.9 2-2 2 -1.11 0-2-.9-2-2v-2h2c1.1 0 2 .89 2 2Zm5-10c0-1.11-.9-2-2-2 -1.11 0-2 .89-2 2v2h2c1.1 0 2-.9 2-2Z"/></svg>
